X:1
T:Lead, Kindly Light
T:John Bacchus Dykes, 1865
T:Lead, Kindly Light
T:Public Domain
T:Public Domain
C:John Bacchus Dykes, 1865
Z:Public Domain
%%score ( 1 2 ) ( 3 4 )
L:1/8
M:3/4
K:Ab
V:1 treble 
V:2 treble 
V:3 bass 
V:4 bass 
V:1
 E[EA] [EB] | [Ec]>[Cc] [DB][EA] [EF][DA] | ([DF]2 E4) | [EA]2 [EG]2 (EC) | [DB]3 | E[EA] [EB] | %6
w: 1.~Lead, kind- ly|a- mid th’en- circ- ling gloom,|Lead *|me on! The *|is|dark, and I|
w: 2.~I was not|er thus, nor prayed that Thou|Shouldst *|me on; I *|to|choose and see|
w: 3.~So long Thy|hath blest me, sure it still|Will *|me on. O’er *|and|fen, o’er crag|
w: 4.~Mean- time, a-|the nar- row rug- ged path,|Thy- *|hast trod, Lead, *|ior,|lead me home|
 [Ec]>[Cc] [DB][EA] [EF][DA] | ([DF]2 [CE]4) | [CE]2 [EA]3 [EG] | (G2 A4) | [EB]2 [=DB]2 [EB]2 | %11
w: far from home; Lead Thou me|on! *|Keep Thou my|feet; *|do not ask|
w: path; but now Lead Thou me|on! *|I loved the|gar- *|day, and, spite|
w: tor- rent, till The night is|gone, *|And with the|morn *|an- gel fa-|
w: child- like faith, Home to my|God. *|To rest for-|ev- *|af- ter earth-|
 [FB]4 [EB]2 | [EB][Ec] (BA) (GF) | (z2 C2 D2) | [Cc]2 [DB]2 (E=E) | [FA]3 [FA] [EG][DF] | %16
w: to see|The dist- ant * scene; *||nough for me. *||
w: of fears,|Pride ruled my * will. *||not past years! *||
w: ces smile,|Which I have * loved *||lost a- while. *||
w: ly strife|In the calm * light *||last- ing life. *||
 ([CE]2 [EA]3) [DG] | ([DG]2 [CA]) |] %18
w: ||
w: ||
w: ||
w: ||
V:2
 E x2 | x6 | x2 E4 | x4 A2 | x3 | E x2 | x6 | x6 | x6 | E6 | x6 | x6 | x2 =D2 D2 | E6 | x4 A2 | %15
w: Light,||Thou|night||am||||I|||one step|e-||
w: ev-||lead|loved||my||||ish|||Re- mem-|ber||
w: power||lead|moor||and||||those|||long since,|and||
w: long||self|Sav-||in||||er|||of ev-|er-||
 x6 | x6 | x3 |] %18
w: |||
w: |||
w: |||
w: |||
V:3
 [A,C][A,C] [A,D] | [A,C]>[A,,A,] [B,,A,][C,A,] [D,A,][F,A,] | (z2 C2 [B,D]2) | %3
 [CE]2 [B,D]2 (CA,) | (A,2 G,) | [E,D][F,D] [G,D] | [A,C]>[A,,A,] [B,,A,][C,A,] [D,A,][F,A,] | %7
 (z2 A,,2 C,2) | [E,A,]2 [E,C]3 [E,B,] | ([E,D]2 [A,C]4) | [G,B,]2 [F,A,]2 (G,C) | %11
 (B,2 A,2) [E,G,]2 | [B,,G,][B,,G,] [B,,A,]2 [B,,A,]2 | (G,2 A,2 B,2) | [A,,A,]2 (F,G,) [C,A,]2 | %15
 [D,A,]3 [D,F,] [D,G,][D,A,] | (A,2 C3) B, | ([E,B,]2 [A,,A,]) |] %18
V:4
 x3 | x6 | A,4 x2 | x4 A,2 | E,3 | x3 | x6 | A,6 | x6 | x6 | x4 E,2 | =D,4 x2 | x6 | E,6 | %14
 x2 B,,2 x2 | x6 | E,4 x2 | x3 |] %18

